!!!SOCIAL_FUNCTION:	dream songs
!!!PDT:	1913
!!!OTL: No_97_Song_of_the_Deer_Dancing.krn
!!!REG: Great_Lakes
!!!LANG: Non-Tone
!!!LING_GROUP: Algonquin
**kern	**kern
*staff2	*staff1
=1-	=1-
*clefF4	*clefF4
*k[f#c#]	*k[f#c#]
*M2/4	*M2/4
12GG^/	8B\L
12r	.
.	8B\J
12GG/	.
12GG^/	8B\L
12r	.
.	8B\J
12GG/	.
=2||	=2||
*M3/4	*M3/4
2.r	8d\L
.	8d\J
.	4B\
.	8A\L
.	8A\J
=3||	=3||
*M2/4	*M2/4
2r	2F#\
=4	=4
2r	8B\L
.	8B\J
.	8A\L
.	8F#\J
=5||	=5||
*M3/4	*M3/4
2.r	8B\L
.	8F#\J
.	4E\
.	8D\L
.	8D\J
=6||	=6||
*M2/4	*M2/4
2r	[2BB/
=7	=7
2r	4BB/]
.	8D\L
.	8D\J
=8||	=8||
*M3/4	*M3/4
2.r	[2.BB/
=9||	=9||
*M2/4	*M2/4
2r	4BB/]
.	8D\L
.	8D\J
=10||	=10||
*M3/4	*M3/4
2.r	[2.BB/
=11||	=11||
*M2/4	*M2/4
2r	2BB/]
==	==
*-	*-
